blockchains/ethereum/assets/0xa62cc35625B0C8dc1fAEA39d33625Bb4C15bD71C/logo.svg

<svg fill="none" height="250" viewBox="0 0 250 250" width="250" xmlns="http://www.w3.org/2000/svg" xmlns:xlink="http://www.w3.org/1999/xlink"><clipPath id="a"><path d="m0 0h250v250h-250z"/></clipPath><g clip-path="url(#a)"><circle cx="125" cy="125" fill="#fa2e53" r="125"/><path clip-rule="evenodd" d="m149.937 158.615c2.505-.538 4.836-.567 7.05-.114s4.224 1.388 6.03 2.719l34.9 26.28h-47.776l-20.975-23.618zm-59.8369-95.9168 41.9499 48.2558c3.175 4.248 4.777 8.949 4.777 14.131s-1.602 9.883-4.777 14.131l-41.9499 48.256h-38.0168l46.1154-52.9c2.4183-2.69 3.6413-5.862 3.6413-9.487s-1.223-6.797-3.6413-9.487l-46.1154-52.8998zm107.8169-.1982-34.9 26.2517c-1.806 1.3593-3.816 2.2655-6.03 2.7186-2.214.4814-4.574.4248-7.05-.1133l-20.771-5.239 20.975-23.618z" fill="#fff" fill-rule="evenodd"/></g></svg>

<svg width="250" height="250" viewBox="0 0 250 250" fill="none" xmlns="http://www.w3.org/2000/svg">
<g clip-path="url(#clip0_37_33959)">
<circle cx="125" cy="125" r="125" fill="#FA2E53"/>
<path fill-rule="evenodd" clip-rule="evenodd" d="M149.937 158.615C152.442 158.077 154.773 158.048 156.987 158.501C159.201 158.954 161.211 159.889 163.017 161.22L197.917 187.5H150.141L129.166 163.882L149.937 158.615ZM90.1001 62.6982L132.05 110.954C135.225 115.202 136.827 119.903 136.827 125.085C136.827 130.267 135.225 134.968 132.05 139.216L90.1001 187.472H52.0833L98.1987 134.572C100.617 131.882 101.84 128.71 101.84 125.085C101.84 121.46 100.617 118.288 98.1987 115.598L52.0833 62.6982H90.1001ZM197.917 62.5L163.017 88.7517C161.211 90.111 159.201 91.0172 156.987 91.4703C154.773 91.9517 152.413 91.8951 149.937 91.357L129.166 86.118L150.141 62.5H197.917Z" fill="white"/>
</g>
<defs>
<clipPath id="clip0_37_33959">
<rect width="250" height="250" fill="white"/>
</clipPath>
</defs>
</svg>
